TV/Source/Sky Movies Pop-Up.svg

<svg height="6.686338mm" viewBox="0 0 82.580253 23.69175" width="23.305983mm" xmlns="http://www.w3.org/2000/svg" xmlns:xlink="http://www.w3.org/1999/xlink"><clipPath id="a"><path d="m121.975 539.122h82.8v24.803h-82.8z"/></clipPath><g clip-path="url(#a)" transform="matrix(1.25 0 0 -1.25 -162.928501 701.2495)"><g transform="translate(141.1818 556.8912)"><path d="m0 0-.571.572.921.922.572-.572zm2.065 2.065-.571-.571-.572.571h-1.143l-.922-.921.23.921h-2.849c-.367 0-.693-.293-.693-.662 0-.176.069-.337.179-.456l.55-.543c.036-.038.054-.083.054-.121 0-.091-.054-.16-.196-.16h-1.156l-.175-.694h1.932c.367 0 .696.29.696.659 0 .176-.069.337-.181.456l-.556.55c-.03.032-.048.076-.048.114 0 .091.061.164.17.164h1.177l-.484-1.943h.922l.2.799.8-.799h1.143l2.636 2.636zm6.029 2.022v-18.932h-18.933v18.932l9.467-9.466z" fill="#fff"/></g><g transform="translate(155.5875 560.9994)"><path d="m0 0 4.296-4.308 4.296 4.308v-8.713h-1.942v4.223l-2.354-2.354-2.355 2.354v-4.223h-1.941z" fill="#fff"/></g><g transform="translate(171.7752 556.5945)"><path d="m0 0c0 1.383-1.056 2.536-2.452 2.536-1.395 0-2.451-1.153-2.451-2.536 0-1.384 1.056-2.536 2.451-2.536 1.396 0 2.452 1.152 2.452 2.536m-6.856 0c0 2.427 1.977 4.405 4.404 4.405 2.428 0 4.405-1.978 4.405-4.405s-1.977-4.405-4.405-4.405c-2.427 0-4.404 1.978-4.404 4.405" fill="#fff"/></g><g transform="translate(173.0607 560.9025)"><path d="m0 0h2.16l1.905-4.308 1.905 4.308h2.16l-4.065-8.713z" fill="#fff"/></g><path d="m181.639 560.902h1.941v-8.616h-1.941z" fill="#fff"/><g transform="translate(184.7812 560.9025)"><path d="m0 0h5.339v-1.918h-3.398v-1.456h2.671v-1.868h-2.671v-1.457h3.398v-1.917h-5.339z" fill="#fff"/></g><g transform="translate(190.5693 553.8766)"><path d="m0 0 1.468 1.201c.377-.595.996-1.068 1.59-1.068.57 0 .825.218.825.619 0 .388-.279.631-1.007.959l-.485.218c-1.299.582-2.015 1.541-2.015 2.706 0 1.505 1.25 2.488 2.621 2.488.959 0 1.687-.231 2.415-1.08l-1.311-1.384c-.436.534-.703.644-1.104.644-.327 0-.667-.207-.667-.595 0-.449.376-.692 1.165-1.044l.461-.206c1.189-.534 1.881-1.395 1.881-2.585 0-1.553-1.141-2.56-2.743-2.56-1.383 0-2.499.57-3.094 1.687" fill="#fff"/></g><g transform="translate(158.4026 546.5841)"><path d="m0 0c .149 0 .289.03.419.088.129.059.241.14.335.242.095.102.169.218.224.348.055.129.083.265.083.406 0 .283-.101.532-.301.749-.2.215-.453.324-.76.324h-.848v-2.157zm-2.734 3.924h2.757c.409 0 .788-.075 1.138-.224.349-.149.652-.351.907-.607.256-.255.456-.555.601-.901.146-.346.218-.715.218-1.108s-.072-.762-.218-1.107c-.145-.346-.345-.647-.601-.902-.255-.255-.558-.458-.907-.607-.35-.149-.729-.224-1.138-.224h-.871v-2.687h-1.886z" fill="#fff"/></g><g transform="translate(166.1215 543.8621)"><path d="m0 0c .338 0 .652.065.943.195.29.129.542.306.754.53.212.223.379.485.501.783.121.299.182.617.182.955s-.061.656-.182.954c-.122.299-.289.56-.501.784s-.464.401-.754.53c-.291.13-.605.195-.943.195s-.652-.065-.943-.195c-.291-.129-.542-.306-.754-.53s-.379-.485-.501-.784c-.122-.298-.183-.616-.183-.954s.061-.656.183-.955c.122-.298.289-.56.501-.783.212-.224.463-.401.754-.53.291-.13.605-.195.943-.195m0-1.814c-.589 0-1.143.111-1.662.335-.518.224-.972.531-1.361.919-.388.389-.695.843-.919 1.361-.224.519-.336 1.073-.336 1.662s.112 1.143.336 1.662c.224.518.531.972.919 1.36.389.389.843.696 1.361.92.519.224 1.073.336 1.662.336s1.143-.112 1.662-.336c.518-.224.972-.531 1.36-.92.389-.388.696-.842.92-1.36.223-.519.336-1.073.336-1.662s-.113-1.143-.336-1.662c-.224-.518-.531-.972-.92-1.361-.388-.388-.842-.695-1.36-.919-.519-.224-1.073-.335-1.662-.335" fill="#fff"/></g><g transform="translate(174.323 546.5841)"><path d="m0 0c .149 0 .289.03.419.088.129.059.241.14.335.242.095.102.169.218.224.348.055.129.083.265.083.406 0 .283-.101.532-.301.749-.2.215-.454.324-.76.324h-.848v-2.157zm-2.734 3.924h2.757c.409 0 .788-.075 1.138-.224.349-.149.652-.351.907-.607.256-.255.456-.555.601-.901s.218-.715.218-1.108-.073-.762-.218-1.107c-.145-.346-.345-.647-.601-.902-.255-.255-.558-.458-.907-.607-.35-.149-.729-.224-1.138-.224h-.871v-2.687h-1.886z" fill="#fff"/></g><path d="m177.87 546.313h3.346v-1.697h-3.346z" fill="#fff"/><g transform="translate(185.8597 542.0476)"><path d="m0 0c-.503 0-.964.083-1.385.247-.42.165-.781.401-1.083.707-.303.307-.539.673-.708 1.102-.169.428-.253.905-.253 1.432v4.973h1.885v-4.997c0-.51.142-.913.424-1.207.283-.295.656-.443 1.12-.443.463 0 .837.148 1.119.443.283.294.425.697.425 1.207v4.997h1.885v-4.973c0-.527-.084-1.004-.253-1.432-.17-.429-.405-.795-.708-1.102-.302-.306-.663-.542-1.083-.707-.42-.164-.882-.247-1.385-.247" fill="#fff"/></g><g transform="translate(193.519 546.5841)"><path d="m0 0c .15 0 .289.03.418.088.131.059.242.14.337.242.094.102.169.218.223.348.055.129.083.265.083.406 0 .283-.1.532-.3.749-.201.215-.454.324-.761.324h-.849v-2.157zm-2.734 3.924h2.758c.409 0 .787-.075 1.136-.224.351-.149.653-.351.909-.607.255-.255.455-.555.6-.901.146-.346.219-.715.219-1.108s-.073-.762-.219-1.107c-.145-.346-.345-.647-.6-.902-.256-.255-.558-.458-.909-.607-.349-.149-.727-.224-1.136-.224h-.873v-2.687h-1.885z" fill="#fff"/></g></g></svg>

<?xml version="1.0" encoding="UTF-8" standalone="no"?>
<!-- Created with Inkscape (http://www.inkscape.org/) -->

<svg
   xmlns:dc="http://purl.org/dc/elements/1.1/"
   xmlns:cc="http://creativecommons.org/ns#"
   xmlns:rdf="http://www.w3.org/1999/02/22-rdf-syntax-ns#"
   xmlns:svg="http://www.w3.org/2000/svg"
   xmlns="http://www.w3.org/2000/svg"
   xmlns:sodipodi="http://sodipodi.sourceforge.net/DTD/sodipodi-0.dtd"
   xmlns:inkscape="http://www.inkscape.org/namespaces/inkscape"
   width="23.305983mm"
   height="6.6863384mm"
   viewBox="0 0 82.580253 23.69175"
   id="svg316926"
   version="1.1"
   inkscape:version="0.91 r13725"
   sodipodi:docname="Sky Movies Pop-Up.svg">
  <defs
     id="defs316928">
    <clipPath
       clipPathUnits="userSpaceOnUse"
       id="clipPath72686">
      <path
         d="m 121.975,539.122 82.8,0 0,24.803 -82.8,0 0,-24.803 z"
         id="path72688"
         inkscape:connector-curvature="0" />
    </clipPath>
  </defs>
  <sodipodi:namedview
     id="base"
     pagecolor="#ffffff"
     bordercolor="#666666"
     borderopacity="1.0"
     inkscape:pageopacity="0.0"
     inkscape:pageshadow="2"
     inkscape:zoom="5.6"
     inkscape:cx="48.368023"
     inkscape:cy="-12.705221"
     inkscape:document-units="px"
     inkscape:current-layer="layer1"
     showgrid="false"
     fit-margin-top="0"
     fit-margin-left="0"
     fit-margin-right="0"
     fit-margin-bottom="0"
     inkscape:window-width="1920"
     inkscape:window-height="1017"
     inkscape:window-x="-8"
     inkscape:window-y="-8"
     inkscape:window-maximized="1" />
  <metadata
     id="metadata316931">
    <rdf:RDF>
      <cc:Work
         rdf:about="">
        <dc:format>image/svg+xml</dc:format>
        <dc:type
           rdf:resource="http://purl.org/dc/dcmitype/StillImage" />
        <dc:title />
      </cc:Work>
    </rdf:RDF>
  </metadata>
  <g
     inkscape:label="Layer 1"
     inkscape:groupmode="layer"
     id="layer1"
     transform="translate(-252.99559,-417.6592)">
    <g
       transform="matrix(1.25,0,0,-1.25,90.067089,1118.9087)"
       id="g72682">
      <g
         id="g72684"
         clip-path="url(#clipPath72686)">
        <g
           id="g72690"
           transform="translate(141.1818,556.8912)">
          <path
             d="M 0,0 -0.571,0.572 0.35,1.494 0.922,0.922 0,0 Z M 2.065,2.065 1.494,1.494 0.922,2.065 l -1.143,0 -0.922,-0.921 0.23,0.921 -2.849,0 c -0.367,0 -0.693,-0.293 -0.693,-0.662 0,-0.176 0.069,-0.337 0.179,-0.456 l 0.55,-0.543 c 0.036,-0.038 0.054,-0.083 0.054,-0.121 0,-0.091 -0.054,-0.16 -0.196,-0.16 l -1.156,0 -0.175,-0.694 1.932,0 c 0.367,0 0.696,0.29 0.696,0.659 0,0.176 -0.069,0.337 -0.181,0.456 l -0.556,0.55 c -0.03,0.032 -0.048,0.076 -0.048,0.114 0,0.091 0.061,0.164 0.17,0.164 l 1.177,0 -0.484,-1.943 0.922,0 0.2,0.799 0.8,-0.799 1.143,0 2.636,2.636 -1.143,0 z m 6.029,2.022 0,-18.932 -18.933,0 0,18.932 9.467,-9.466 9.466,9.466 z"
             style="fill:#ffffff;fill-opacity:1;fill-rule:nonzero;stroke:none"
             id="path72692"
             inkscape:connector-curvature="0" />
        </g>
        <g
           id="g72694"
           transform="translate(155.5875,560.9994)">
          <path
             d="M 0,0 4.296,-4.308 8.592,0 l 0,-8.713 -1.942,0 0,4.223 -2.354,-2.354 -2.355,2.354 0,-4.223 L 0,-8.713 0,0 Z"
             style="fill:#ffffff;fill-opacity:1;fill-rule:nonzero;stroke:none"
             id="path72696"
             inkscape:connector-curvature="0" />
        </g>
        <g
           id="g72698"
           transform="translate(171.7752,556.5945)">
          <path
             d="m 0,0 c 0,1.383 -1.056,2.536 -2.452,2.536 -1.395,0 -2.451,-1.153 -2.451,-2.536 0,-1.384 1.056,-2.536 2.451,-2.536 C -1.056,-2.536 0,-1.384 0,0 m -6.856,0 c 0,2.427 1.977,4.405 4.404,4.405 2.428,0 4.405,-1.978 4.405,-4.405 0,-2.427 -1.977,-4.405 -4.405,-4.405 -2.427,0 -4.404,1.978 -4.404,4.405"
             style="fill:#ffffff;fill-opacity:1;fill-rule:nonzero;stroke:none"
             id="path72700"
             inkscape:connector-curvature="0" />
        </g>
        <g
           id="g72702"
           transform="translate(173.0607,560.9025)">
          <path
             d="M 0,0 2.16,0 4.065,-4.308 5.97,0 8.13,0 4.065,-8.713 0,0 Z"
             style="fill:#ffffff;fill-opacity:1;fill-rule:nonzero;stroke:none"
             id="path72704"
             inkscape:connector-curvature="0" />
        </g>
        <path
           d="m 181.639,560.902 1.941,0 0,-8.616 -1.941,0 0,8.616 z"
           style="fill:#ffffff;fill-opacity:1;fill-rule:nonzero;stroke:none"
           id="path72706"
           inkscape:connector-curvature="0" />
        <g
           id="g72708"
           transform="translate(184.7812,560.9025)">
          <path
             d="m 0,0 5.339,0 0,-1.918 -3.398,0 0,-1.456 2.671,0 0,-1.868 -2.671,0 0,-1.457 3.398,0 0,-1.917 L 0,-8.616 0,0 Z"
             style="fill:#ffffff;fill-opacity:1;fill-rule:nonzero;stroke:none"
             id="path72710"
             inkscape:connector-curvature="0" />
        </g>
        <g
           id="g72712"
           transform="translate(190.5693,553.8766)">
          <path
             d="m 0,0 1.468,1.201 c 0.377,-0.595 0.996,-1.068 1.59,-1.068 0.57,0 0.825,0.218 0.825,0.619 0,0.388 -0.279,0.631 -1.007,0.959 L 2.391,1.929 C 1.092,2.511 0.376,3.47 0.376,4.635 c 0,1.505 1.25,2.488 2.621,2.488 0.959,0 1.687,-0.231 2.415,-1.08 L 4.101,4.659 C 3.665,5.193 3.398,5.303 2.997,5.303 2.67,5.303 2.33,5.096 2.33,4.708 2.33,4.259 2.706,4.016 3.495,3.664 L 3.956,3.458 C 5.145,2.924 5.837,2.063 5.837,0.873 5.837,-0.68 4.696,-1.687 3.094,-1.687 1.711,-1.687 0.595,-1.117 0,0"
             style="fill:#ffffff;fill-opacity:1;fill-rule:nonzero;stroke:none"
             id="path72714"
             inkscape:connector-curvature="0" />
        </g>
        <g
           id="g72716"
           transform="translate(158.4026,546.5841)">
          <path
             d="M 0,0 C 0.149,0 0.289,0.03 0.419,0.088 0.548,0.147 0.66,0.228 0.754,0.33 0.849,0.432 0.923,0.548 0.978,0.678 1.033,0.807 1.061,0.943 1.061,1.084 1.061,1.367 0.96,1.616 0.76,1.833 0.56,2.048 0.307,2.157 0,2.157 l -0.848,0 L -0.848,0 0,0 Z m -2.734,3.924 2.757,0 C 0.432,3.924 0.811,3.849 1.161,3.7 1.51,3.551 1.813,3.349 2.068,3.093 2.324,2.838 2.524,2.538 2.669,2.192 2.815,1.846 2.887,1.477 2.887,1.084 2.887,0.691 2.815,0.322 2.669,-0.023 2.524,-0.369 2.324,-0.67 2.068,-0.925 1.813,-1.18 1.51,-1.383 1.161,-1.532 0.811,-1.681 0.432,-1.756 0.023,-1.756 l -0.871,0 0,-2.687 -1.886,0 0,8.367 z"
             style="fill:#ffffff;fill-opacity:1;fill-rule:nonzero;stroke:none"
             id="path72718"
             inkscape:connector-curvature="0" />
        </g>
        <g
           id="g72720"
           transform="translate(166.1215,543.8621)">
          <path
             d="M 0,0 C 0.338,0 0.652,0.065 0.943,0.195 1.233,0.324 1.485,0.501 1.697,0.725 1.909,0.948 2.076,1.21 2.198,1.508 2.319,1.807 2.38,2.125 2.38,2.463 2.38,2.801 2.319,3.119 2.198,3.417 2.076,3.716 1.909,3.977 1.697,4.201 1.485,4.425 1.233,4.602 0.943,4.731 0.652,4.861 0.338,4.926 0,4.926 -0.338,4.926 -0.652,4.861 -0.943,4.731 -1.234,4.602 -1.485,4.425 -1.697,4.201 -1.909,3.977 -2.076,3.716 -2.198,3.417 -2.32,3.119 -2.381,2.801 -2.381,2.463 -2.381,2.125 -2.32,1.807 -2.198,1.508 -2.076,1.21 -1.909,0.948 -1.697,0.725 -1.485,0.501 -1.234,0.324 -0.943,0.195 -0.652,0.065 -0.338,0 0,0 m 0,-1.814 c -0.589,0 -1.143,0.111 -1.662,0.335 -0.518,0.224 -0.972,0.531 -1.361,0.919 -0.388,0.389 -0.695,0.843 -0.919,1.361 -0.224,0.519 -0.336,1.073 -0.336,1.662 0,0.589 0.112,1.143 0.336,1.662 0.224,0.518 0.531,0.972 0.919,1.36 0.389,0.389 0.843,0.696 1.361,0.92 C -1.143,6.629 -0.589,6.741 0,6.741 0.589,6.741 1.143,6.629 1.662,6.405 2.18,6.181 2.634,5.874 3.022,5.485 3.411,5.097 3.718,4.643 3.942,4.125 4.165,3.606 4.278,3.052 4.278,2.463 4.278,1.874 4.165,1.32 3.942,0.801 3.718,0.283 3.411,-0.171 3.022,-0.56 2.634,-0.948 2.18,-1.255 1.662,-1.479 1.143,-1.703 0.589,-1.814 0,-1.814"
             style="fill:#ffffff;fill-opacity:1;fill-rule:nonzero;stroke:none"
             id="path72722"
             inkscape:connector-curvature="0" />
        </g>
        <g
           id="g72724"
           transform="translate(174.323,546.5841)">
          <path
             d="M 0,0 C 0.149,0 0.289,0.03 0.419,0.088 0.548,0.147 0.66,0.228 0.754,0.33 0.849,0.432 0.923,0.548 0.978,0.678 1.033,0.807 1.061,0.943 1.061,1.084 1.061,1.367 0.96,1.616 0.76,1.833 0.56,2.048 0.306,2.157 0,2.157 l -0.848,0 L -0.848,0 0,0 Z m -2.734,3.924 2.757,0 C 0.432,3.924 0.811,3.849 1.161,3.7 1.51,3.551 1.813,3.349 2.068,3.093 2.324,2.838 2.524,2.538 2.669,2.192 2.814,1.846 2.887,1.477 2.887,1.084 2.887,0.691 2.814,0.322 2.669,-0.023 2.524,-0.369 2.324,-0.67 2.068,-0.925 1.813,-1.18 1.51,-1.383 1.161,-1.532 0.811,-1.681 0.432,-1.756 0.023,-1.756 l -0.871,0 0,-2.687 -1.886,0 0,8.367 z"
             style="fill:#ffffff;fill-opacity:1;fill-rule:nonzero;stroke:none"
             id="path72726"
             inkscape:connector-curvature="0" />
        </g>
        <path
           d="m 177.87,546.313 3.346,0 0,-1.697 -3.346,0 0,1.697 z"
           style="fill:#ffffff;fill-opacity:1;fill-rule:nonzero;stroke:none"
           id="path72728"
           inkscape:connector-curvature="0" />
        <g
           id="g72730"
           transform="translate(185.8597,542.0476)">
          <path
             d="m 0,0 c -0.503,0 -0.964,0.083 -1.385,0.247 -0.42,0.165 -0.781,0.401 -1.083,0.707 -0.303,0.307 -0.539,0.673 -0.708,1.102 -0.169,0.428 -0.253,0.905 -0.253,1.432 l 0,4.973 1.885,0 0,-4.997 c 0,-0.51 0.142,-0.913 0.424,-1.207 0.283,-0.295 0.656,-0.443 1.12,-0.443 0.463,0 0.837,0.148 1.119,0.443 0.283,0.294 0.425,0.697 0.425,1.207 l 0,4.997 1.885,0 0,-4.973 C 3.429,2.961 3.345,2.484 3.176,2.056 3.006,1.627 2.771,1.261 2.468,0.954 2.166,0.648 1.805,0.412 1.385,0.247 0.965,0.083 0.503,0 0,0"
             style="fill:#ffffff;fill-opacity:1;fill-rule:nonzero;stroke:none"
             id="path72732"
             inkscape:connector-curvature="0" />
        </g>
        <g
           id="g72734"
           transform="translate(193.519,546.5841)">
          <path
             d="m 0,0 c 0.15,0 0.289,0.03 0.418,0.088 0.131,0.059 0.242,0.14 0.337,0.242 0.094,0.102 0.169,0.218 0.223,0.348 0.055,0.129 0.083,0.265 0.083,0.406 0,0.283 -0.1,0.532 -0.3,0.749 C 0.56,2.048 0.307,2.157 0,2.157 l -0.849,0 L -0.849,0 0,0 Z m -2.734,3.924 2.758,0 C 0.433,3.924 0.811,3.849 1.16,3.7 1.511,3.551 1.813,3.349 2.069,3.093 2.324,2.838 2.524,2.538 2.669,2.192 2.815,1.846 2.888,1.477 2.888,1.084 2.888,0.691 2.815,0.322 2.669,-0.023 2.524,-0.369 2.324,-0.67 2.069,-0.925 1.813,-1.18 1.511,-1.383 1.16,-1.532 0.811,-1.681 0.433,-1.756 0.024,-1.756 l -0.873,0 0,-2.687 -1.885,0 0,8.367 z"
             style="fill:#ffffff;fill-opacity:1;fill-rule:nonzero;stroke:none"
             id="path72736"
             inkscape:connector-curvature="0" />
        </g>
      </g>
    </g>
  </g>
</svg>
